X: 16845
T: Harvest Moon
R: reel
M: 4/4
K: Adorian
G|EAAG AcBA|GE E2 GA (3Bcd|eA A2 Bdeg|a2ge d2 (3Bcd|
eAAG AcBA|GE E2 GA (3Bcd|ea a2 gedB|GABG A3:|
B|cBcd eg g2|eaaf g2ag|eA A2 (3Bcd eg|a2ge d2ed|
c3d eg g2|eaaf g2ed|c2BA GEDE|GABG A3:|

